app/sources/images/logo.svg

<svg width="312" height="767" fill="none" xmlns="http://www.w3.org/2000/svg"><path d="M312 103H131L.5 449.5 312 767V103Z" fill="#000"/><path d="M259.19 304.96c-2.48 0-4.34-1.033-5.58-3.1l-68.2-97.03c-3.307 2.48-5.683 5.683-7.13 9.61-1.24 3.72-1.86 9.093-1.86 16.12v33.17h20.15c1.86 0 3.41.62 4.65 1.86 1.24 1.24 1.86 2.79 1.86 4.65v23.25c0 1.86-.62 3.41-1.86 4.65-1.24 1.24-2.79 1.86-4.65 1.86h-44.02c-3.72 0-6.923-1.24-9.61-3.72-2.48-2.687-3.72-5.89-3.72-9.61V231.8c0-12.813 1.757-23.457 5.27-31.93 3.513-8.473 9.403-16.017 17.67-22.63l2.48-2.17-24.49-35.03c-.827-1.033-1.24-2.273-1.24-3.72 0-2.273 1.033-4.133 3.1-5.58l19.53-13.95c1.033-.827 2.273-1.24 3.72-1.24 2.273 0 4.133 1.033 5.58 3.1l59.52 84.94c7.027-.62 12.813-3.1 17.36-7.44 4.753-4.547 7.13-10.127 7.13-16.74v-24.8h-20.46c-1.86 0-3.41-.62-4.65-1.86-1.24-1.24-1.86-2.79-1.86-4.65v-23.25c0-1.86.62-3.41 1.86-4.65 1.24-1.24 2.79-1.86 4.65-1.86h44.33c3.72 0 6.82 1.343 9.3 4.03 2.687 2.48 4.03 5.58 4.03 9.3v46.19c0 13.227-3.617 24.697-10.85 34.41-7.233 9.713-17.257 16.637-30.07 20.77l33.17 47.43c.827 1.033 1.24 2.273 1.24 3.72 0 2.273-1.033 4.133-3.1 5.58l-19.53 13.95c-1.033.827-2.273 1.24-3.72 1.24Z" fill="url(#a)"/><path d="M210.6 566.4c-3.2 0-5.6-1.333-7.2-4l-88-125.2c-4.267 3.2-7.333 7.333-9.2 12.4-1.6 4.8-2.4 11.733-2.4 20.8v42.8h26c2.4 0 4.4.8 6 2.4 1.6 1.6 2.4 3.6 2.4 6v30c0 2.4-.8 4.4-2.4 6-1.6 1.6-3.6 2.4-6 2.4H73c-4.8 0-8.933-1.6-12.4-4.8-3.2-3.467-4.8-7.6-4.8-12.4V472c0-16.533 2.267-30.267 6.8-41.2 4.533-10.933 12.133-20.667 22.8-29.2l3.2-2.8L57 353.6c-1.067-1.333-1.6-2.933-1.6-4.8 0-2.933 1.333-5.333 4-7.2l25.2-18c1.333-1.067 2.933-1.6 4.8-1.6 2.933 0 5.333 1.333 7.2 4l76.8 109.6c9.067-.8 16.533-4 22.4-9.6 6.133-5.867 9.2-13.067 9.2-21.6v-32h-26.4c-2.4 0-4.4-.8-6-2.4-1.6-1.6-2.4-3.6-2.4-6v-30c0-2.4.8-4.4 2.4-6 1.6-1.6 3.6-2.4 6-2.4h57.2c4.8 0 8.8 1.733 12 5.2 3.467 3.2 5.2 7.2 5.2 12v59.6c0 17.067-4.667 31.867-14 44.4-9.333 12.533-22.267 21.467-38.8 26.8l42.8 61.2c1.067 1.333 1.6 2.933 1.6 4.8 0 2.933-1.333 5.333-4 7.2l-25.2 18c-1.333 1.067-2.933 1.6-4.8 1.6Z" fill="url(#b)"/><defs><linearGradient id="a" x1="214.5" y1="0" x2="215" y2="310" gradientUnits="userSpaceOnUse"><stop offset=".613" stop-color="#44FFBC"/><stop offset="1" stop-color="#22C2AF"/></linearGradient><linearGradient id="b" x1="153" y1="317" x2="153" y2="615.5" gradientUnits="userSpaceOnUse"><stop offset=".441" stop-color="#00E075"/><stop offset="1" stop-color="#01542C"/></linearGradient></defs></svg>

<svg width="312" height="767" viewBox="0 0 312 767" fill="none" xmlns="http://www.w3.org/2000/svg">
<path d="M312 103H131L0.5 449.5L312 767V103Z" fill="black"/>
<path d="M259.19 304.96C256.71 304.96 254.85 303.927 253.61 301.86L185.41 204.83C182.103 207.31 179.727 210.513 178.28 214.44C177.04 218.16 176.42 223.533 176.42 230.56V263.73H196.57C198.43 263.73 199.98 264.35 201.22 265.59C202.46 266.83 203.08 268.38 203.08 270.24V293.49C203.08 295.35 202.46 296.9 201.22 298.14C199.98 299.38 198.43 300 196.57 300H152.55C148.83 300 145.627 298.76 142.94 296.28C140.46 293.593 139.22 290.39 139.22 286.67V231.8C139.22 218.987 140.977 208.343 144.49 199.87C148.003 191.397 153.893 183.853 162.16 177.24L164.64 175.07L140.15 140.04C139.323 139.007 138.91 137.767 138.91 136.32C138.91 134.047 139.943 132.187 142.01 130.74L161.54 116.79C162.573 115.963 163.813 115.55 165.26 115.55C167.533 115.55 169.393 116.583 170.84 118.65L230.36 203.59C237.387 202.97 243.173 200.49 247.72 196.15C252.473 191.603 254.85 186.023 254.85 179.41V154.61H234.39C232.53 154.61 230.98 153.99 229.74 152.75C228.5 151.51 227.88 149.96 227.88 148.1V124.85C227.88 122.99 228.5 121.44 229.74 120.2C230.98 118.96 232.53 118.34 234.39 118.34H278.72C282.44 118.34 285.54 119.683 288.02 122.37C290.707 124.85 292.05 127.95 292.05 131.67V177.86C292.05 191.087 288.433 202.557 281.2 212.27C273.967 221.983 263.943 228.907 251.13 233.04L284.3 280.47C285.127 281.503 285.54 282.743 285.54 284.19C285.54 286.463 284.507 288.323 282.44 289.77L262.91 303.72C261.877 304.547 260.637 304.96 259.19 304.96Z" fill="url(#paint0_linear_11_9)"/>
<path d="M210.6 566.4C207.4 566.4 205 565.067 203.4 562.4L115.4 437.2C111.133 440.4 108.067 444.533 106.2 449.6C104.6 454.4 103.8 461.333 103.8 470.4V513.2H129.8C132.2 513.2 134.2 514 135.8 515.6C137.4 517.2 138.2 519.2 138.2 521.6V551.6C138.2 554 137.4 556 135.8 557.6C134.2 559.2 132.2 560 129.8 560H73C68.2 560 64.0667 558.4 60.6 555.2C57.4 551.733 55.8 547.6 55.8 542.8V472C55.8 455.467 58.0667 441.733 62.6 430.8C67.1333 419.867 74.7333 410.133 85.4 401.6L88.6 398.8L57 353.6C55.9333 352.267 55.4 350.667 55.4 348.8C55.4 345.867 56.7333 343.467 59.4 341.6L84.6 323.6C85.9333 322.533 87.5333 322 89.4 322C92.3333 322 94.7333 323.333 96.6 326L173.4 435.6C182.467 434.8 189.933 431.6 195.8 426C201.933 420.133 205 412.933 205 404.4V372.4H178.6C176.2 372.4 174.2 371.6 172.6 370C171 368.4 170.2 366.4 170.2 364V334C170.2 331.6 171 329.6 172.6 328C174.2 326.4 176.2 325.6 178.6 325.6H235.8C240.6 325.6 244.6 327.333 247.8 330.8C251.267 334 253 338 253 342.8V402.4C253 419.467 248.333 434.267 239 446.8C229.667 459.333 216.733 468.267 200.2 473.6L243 534.8C244.067 536.133 244.6 537.733 244.6 539.6C244.6 542.533 243.267 544.933 240.6 546.8L215.4 564.8C214.067 565.867 212.467 566.4 210.6 566.4Z" fill="url(#paint1_linear_11_9)"/>
<defs>
<linearGradient id="paint0_linear_11_9" x1="214.5" y1="1.38397e-08" x2="215" y2="310" gradientUnits="userSpaceOnUse">
<stop offset="0.612963" stop-color="#44FFBC"/>
<stop offset="1" stop-color="#22C2AF"/>
</linearGradient>
<linearGradient id="paint1_linear_11_9" x1="153" y1="317" x2="153" y2="615.5" gradientUnits="userSpaceOnUse">
<stop offset="0.44064" stop-color="#00E075"/>
<stop offset="1" stop-color="#01542C"/>
</linearGradient>
</defs>
</svg>
